X: 49
M:C|
L:1/8
K:Gm
d2|\
dgg^f g2ga | baga bage | dffg f2fg | agfg agfe |
dgg^f g2ga | bagf dcde | f=efd cAFA | BGA^F G2:|


